img/openhim-logo-green.svg

<?xml version="1.0" encoding="UTF-8"?>
<svg xmlns="http://www.w3.org/2000/svg" xmlns:xlink="http://www.w3.org/1999/xlink" width="600pt" height="180pt" viewBox="0 0 600 180" version="1.1">
<g id="surface1">
<path style=" stroke:none;fill-rule:nonzero;fill:rgb(48.736572%,66.96167%,18.437195%);fill-opacity:1;" d="M 89.621094 134.25 L 145.535156 77.796875 L 69.621094 1.664062 L 48.863281 22.476562 L 105.113281 78.886719 L 49.902344 134.25 L 69.824219 154.238281 L 89.617188 134.25 L 89.621094 134.25 "/>
<path style=" stroke:none;fill-rule:nonzero;fill:rgb(12.239075%,40.000916%,20.985413%);fill-opacity:1;" d="M 118.488281 1.664062 L 97.726562 22.480469 L 151.363281 76.261719 L 151.363281 34.632812 L 118.488281 1.664062 "/>
<path style=" stroke:none;fill-rule:nonzero;fill:rgb(12.239075%,40.000916%,20.985413%);fill-opacity:1;" d="M 98.769531 134.25 L 118.691406 154.238281 L 151.363281 121.246094 L 151.363281 81.511719 L 98.769531 134.25 "/>
<path style=" stroke:none;fill-rule:nonzero;fill:rgb(12.239075%,40.000916%,20.985413%);fill-opacity:1;" d="M 56.246094 78.886719 L 1.039062 134.25 L 20.96875 154.238281 L 96.667969 77.792969 L 20.753906 1.664062 L 0 22.480469 L 56.246094 78.886719 "/>
<path style=" stroke:none;fill-rule:nonzero;fill:rgb(16.876221%,57.618713%,25.483704%);fill-opacity:1;" d="M 20.753906 1.664062 L 41.511719 22.480469 L 48.867188 22.480469 L 69.621094 1.664062 L 20.753906 1.664062 "/>
<path style=" stroke:none;fill-rule:nonzero;fill:rgb(16.876221%,57.618713%,25.483704%);fill-opacity:1;" d="M 89.621094 134.25 L 69.824219 154.238281 L 118.695312 154.238281 L 98.769531 134.25 L 89.621094 134.25 "/>
<path style=" stroke:none;fill-rule:nonzero;fill:rgb(29.434204%,43.211365%,52.674866%);fill-opacity:1;" d="M 89.617188 134.25 L 69.824219 154.238281 L 89.621094 134.25 L 89.617188 134.25 "/>
<path style=" stroke:none;fill-rule:nonzero;fill:rgb(12.239075%,40.000916%,20.985413%);fill-opacity:1;" d="M 177.011719 60.355469 L 177.011719 95.347656 L 194.398438 77.796875 L 177.011719 60.355469 "/>
<path style=" stroke:none;fill-rule:nonzero;fill:rgb(18.435669%,18.890381%,19.250488%);fill-opacity:1;" d="M 197.695312 25.949219 C 197.695312 18.167969 193.53125 14.269531 185.21875 14.269531 C 177.046875 14.269531 172.96875 18.167969 172.96875 25.949219 L 172.96875 129.953125 C 172.96875 137.980469 177.046875 142.003906 185.21875 142.003906 C 193.53125 142.003906 197.695312 137.980469 197.695312 129.953125 Z M 155.40625 25.949219 C 155.40625 8.644531 165.34375 0 185.21875 0 C 205.242188 0 215.253906 8.644531 215.253906 25.949219 L 215.253906 129.953125 C 215.253906 147.25 205.242188 155.898438 185.21875 155.898438 C 165.34375 155.898438 155.40625 147.25 155.40625 129.953125 L 155.40625 25.949219 "/>
<path style=" stroke:none;fill-rule:nonzero;fill:rgb(18.435669%,18.890381%,19.250488%);fill-opacity:1;" d="M 263.773438 61.539062 C 263.773438 57.957031 262.96875 55.460938 261.351562 54.039062 C 259.730469 52.617188 257.144531 51.90625 253.605469 51.90625 C 250.988281 51.90625 248.5625 52.527344 246.324219 53.753906 C 244.097656 54.992188 242.433594 56.847656 241.363281 59.316406 L 241.363281 135.695312 C 242.433594 138.167969 244.097656 140.023438 246.324219 141.253906 C 248.5625 142.492188 250.988281 143.109375 253.605469 143.109375 C 257.144531 143.109375 259.730469 142.402344 261.351562 140.972656 C 262.96875 139.558594 263.773438 137.175781 263.773438 133.835938 Z M 225.414062 180 L 225.414062 39.484375 L 238.828125 39.484375 C 239.285156 42.328125 239.515625 45.234375 239.515625 48.195312 C 241.210938 44.988281 243.589844 42.539062 246.675781 40.871094 C 249.761719 39.210938 253.914062 38.367188 259.152344 38.367188 C 265.773438 38.367188 270.824219 40.105469 274.289062 43.5625 C 277.757812 47.019531 279.488281 52.457031 279.488281 59.875 L 279.488281 134.953125 C 279.488281 142.738281 277.871094 148.175781 274.636719 151.269531 C 271.398438 154.355469 266.089844 155.902344 258.691406 155.902344 C 254.835938 155.902344 251.417969 155.253906 248.410156 153.949219 C 245.402344 152.660156 243.050781 150.953125 241.363281 148.855469 L 241.363281 180 L 225.414062 180 "/>
<path style=" stroke:none;fill-rule:nonzero;fill:rgb(18.435669%,18.890381%,19.250488%);fill-opacity:1;" d="M 324.433594 61.171875 C 324.433594 54.378906 320.886719 50.980469 313.804688 50.980469 C 307.179688 50.980469 303.867188 54.378906 303.867188 61.171875 L 303.867188 88.796875 L 324.433594 88.796875 Z M 324.433594 107.519531 L 339.457031 107.519531 L 339.457031 132.730469 C 339.457031 148.175781 330.902344 155.894531 313.804688 155.894531 C 297.320312 155.894531 289.074219 148.175781 289.074219 132.730469 L 289.074219 61.171875 C 289.074219 53.382812 291.191406 47.523438 295.433594 43.5625 C 299.667969 39.609375 305.789062 37.628906 313.804688 37.628906 C 330.902344 37.628906 339.457031 45.476562 339.457031 61.171875 L 339.457031 98.058594 L 303.867188 98.058594 L 303.867188 132.730469 C 303.867188 139.53125 307.179688 142.921875 313.804688 142.921875 C 320.886719 142.921875 324.433594 139.53125 324.433594 132.730469 L 324.433594 107.519531 "/>
<path style=" stroke:none;fill-rule:nonzero;fill:rgb(18.435669%,18.890381%,19.250488%);fill-opacity:1;" d="M 387.003906 154.234375 L 387.003906 59.507812 C 387.003906 56.164062 386.308594 53.792969 384.925781 52.367188 C 383.539062 50.945312 381.152344 50.234375 377.761719 50.234375 C 375.453125 50.234375 373.140625 50.789062 370.828125 51.90625 C 368.519531 53.019531 366.75 54.808594 365.519531 57.277344 L 365.519531 154.234375 L 349.574219 154.234375 L 349.574219 39.484375 L 362.976562 39.484375 C 363.4375 42.328125 363.667969 45.234375 363.667969 48.195312 C 365.816406 44.988281 368.675781 42.414062 372.214844 40.503906 C 375.757812 38.585938 379.757812 37.628906 384.230469 37.628906 C 390.703125 37.628906 395.441406 39.300781 398.445312 42.636719 C 401.449219 45.972656 402.945312 51.351562 402.945312 58.761719 L 402.945312 154.234375 L 387.003906 154.234375 "/>
<path style=" stroke:none;fill-rule:nonzero;fill:rgb(12.239075%,40.000916%,20.985413%);fill-opacity:1;" d="M 455.402344 154.234375 L 455.402344 83.601562 L 430.902344 83.601562 L 430.902344 154.234375 L 413.347656 154.234375 L 413.347656 1.664062 L 430.902344 1.664062 L 430.902344 69.703125 L 455.402344 69.703125 L 455.402344 1.664062 L 472.960938 1.664062 L 472.960938 154.234375 L 455.402344 154.234375 "/>
<path style=" stroke:none;fill-rule:nonzero;fill:rgb(12.239075%,40.000916%,20.985413%);fill-opacity:1;" d="M 483.839844 154.230469 L 501.402344 154.230469 L 501.402344 1.660156 L 483.839844 1.660156 Z M 483.839844 154.230469 "/>
<path style=" stroke:none;fill-rule:nonzero;fill:rgb(12.239075%,40.000916%,20.985413%);fill-opacity:1;" d="M 583.59375 154.234375 L 583.59375 108.070312 C 583.59375 96.832031 583.632812 85.828125 583.707031 75.074219 C 583.789062 64.324219 583.902344 53.328125 584.054688 42.078125 L 563.492188 154.234375 L 548.011719 154.234375 L 527.675781 42.078125 C 527.820312 53.328125 527.941406 64.324219 528.019531 75.074219 C 528.097656 85.828125 528.140625 96.832031 528.140625 108.070312 L 528.140625 154.234375 L 511.960938 154.234375 L 511.960938 1.664062 L 535.53125 1.664062 L 555.636719 120.863281 L 575.742188 1.664062 L 600 1.664062 L 600 154.234375 L 583.59375 154.234375 "/>
</g>
</svg>

<svg xmlns="http://www.w3.org/2000/svg" width="800" height="240" viewBox="0 0 600 180"><path d="M89.621 134.25l55.914-56.453L69.621 1.664 48.863 22.477l56.25 56.41-55.21 55.363 19.921 19.988 19.793-19.988h.004" fill="#7cab2f"/><path d="M118.488 1.664L97.727 22.48l53.636 53.782v-41.63L118.488 1.665M98.77 134.25l19.921 19.988 32.672-32.992V81.512L98.77 134.25M56.246 78.887L1.04 134.25l19.93 19.988 75.699-76.445L20.754 1.664 0 22.48l56.246 56.407" fill="#1f6636"/><path d="M20.754 1.664L41.512 22.48h7.355L69.621 1.664H20.754M89.621 134.25l-19.797 19.988h48.871L98.77 134.25h-9.15" fill="#2b9341"/><path d="M89.617 134.25l-19.793 19.988 19.797-19.988h-.004" fill="#4b6e86"/><path d="M177.012 60.355v34.993l17.386-17.551-17.386-17.442" fill="#1f6636"/><path d="M197.695 25.95c0-7.782-4.164-11.68-12.476-11.68-8.172 0-12.25 3.898-12.25 11.68v104.003c0 8.027 4.078 12.05 12.25 12.05 8.312 0 12.476-4.023 12.476-12.05zm-42.289 0C155.406 8.644 165.344 0 185.22 0c20.023 0 30.035 8.645 30.035 25.95v104.003c0 17.297-10.012 25.945-30.035 25.945-19.875 0-29.813-8.648-29.813-25.945V25.95m108.366 35.59c0-3.583-.804-6.08-2.421-7.5-1.622-1.423-4.207-2.134-7.747-2.134-2.617 0-5.042.621-7.28 1.848-2.227 1.238-3.891 3.094-4.962 5.562v76.38c1.07 2.472 2.735 4.327 4.961 5.558 2.238 1.238 4.664 1.855 7.281 1.855 3.54 0 6.125-.707 7.747-2.136 1.617-1.414 2.421-3.797 2.421-7.137zM225.414 180V39.484h13.414c.457 2.844.688 5.75.688 8.711 1.695-3.207 4.074-5.656 7.16-7.324 3.086-1.66 7.238-2.504 12.476-2.504 6.621 0 11.672 1.738 15.137 5.196 3.469 3.457 5.2 8.894 5.2 16.312v75.078c0 7.785-1.618 13.223-4.852 16.317-3.239 3.085-8.547 4.632-15.946 4.632-3.855 0-7.273-.648-10.28-1.953-3.009-1.289-5.36-2.996-7.048-5.094V180h-15.949m99.02-118.828c0-6.793-3.547-10.192-10.63-10.192-6.624 0-9.937 3.399-9.937 10.192v27.625h20.567zm0 46.348h15.023v25.21c0 15.446-8.555 23.165-25.652 23.165-16.485 0-24.73-7.72-24.73-23.165V61.172c0-7.79 2.116-13.649 6.359-17.61 4.234-3.953 10.355-5.933 18.37-5.933 17.098 0 25.653 7.848 25.653 23.543v36.887h-35.59v34.671c0 6.801 3.313 10.192 9.938 10.192 7.082 0 10.629-3.39 10.629-10.192v-25.21m62.57 46.714V59.508c0-3.344-.695-5.715-2.078-7.14-1.387-1.423-3.774-2.134-7.164-2.134-2.309 0-4.621.555-6.934 1.672-2.308 1.114-4.078 2.903-5.308 5.371v96.957h-15.946V39.484h13.403c.46 2.844.691 5.75.691 8.711 2.148-3.207 5.008-5.78 8.547-7.691 3.543-1.918 7.543-2.875 12.015-2.875 6.473 0 11.211 1.672 14.215 5.008 3.004 3.336 4.5 8.715 4.5 16.125v95.472h-15.941" fill="#2f3031"/><path d="M455.402 154.234V83.602h-24.5v70.632h-17.554V1.664h17.554v68.04h24.5V1.663h17.559v152.57h-17.559m28.438-.003h17.562V1.66H483.84zm99.754.004V108.07c0-11.238.039-22.242.113-32.996.082-10.75.195-21.746.348-32.996l-20.563 112.156h-15.48L527.676 42.078c.144 11.25.265 22.246.344 32.996.078 10.754.12 21.758.12 32.996v46.164h-16.18V1.664h23.571l20.106 119.2 20.105-119.2H600v152.57h-16.406" fill="#1f6636"/></svg>
